public/uploads/logo-oxxo.svg

<svg width="119" height="60" viewBox="0 0 119 60" fill="none" xmlns="http://www.w3.org/2000/svg">
<path d="M112.429 0H6.5685C2.93893 0 0 2.94918 0 6.5905V6.79854H119V6.5905C119 2.94918 116.057 0 112.429 0Z" fill="black"/>
<path d="M0 53.4106C0 57.0508 2.93893 60 6.5685 60H112.429C116.057 60 119 57.0508 119 53.4106V53.2459H0V53.4106Z" fill="black"/>
<path d="M82.3536 29.9274C82.3536 39.1426 89.7969 46.6118 98.978 46.6118C108.159 46.6118 115.605 39.1426 115.605 29.9274C115.605 20.7133 108.159 13.2449 98.978 13.2449C89.7969 13.2449 82.3536 20.7133 82.3536 29.9274ZM3.09901 29.9274C3.09901 39.1426 10.5414 46.6118 19.7225 46.6118C28.9046 46.6118 36.346 39.1426 36.346 29.9274C36.346 20.7133 28.9046 13.2449 19.7225 13.2449C10.5414 13.2449 3.09901 20.7133 3.09901 29.9274ZM119 50.0874H37.0267C38.5052 49.0468 39.8834 47.6244 41.385 45.7018L49.7331 35.0102L53.3808 39.6328L57.4399 34.2185L53.8914 29.6883L62.3897 18.8026C65.0865 15.3512 59.9255 11.2921 57.2287 14.7466L49.7173 24.3645L42.0837 14.6191C39.3791 11.1727 34.2279 15.2429 36.9316 18.6882L45.5603 29.6903L36.2241 41.6457C32.9067 45.8966 29.5935 49.786 23.023 50.0873H0V9.95432H81.5387C80.1335 10.983 78.8122 12.364 77.3788 14.1991L69.0304 24.89L65.3808 20.2672L61.3248 25.6835L64.8723 30.2127L56.3729 41.0992C53.6772 44.5508 58.8383 48.6088 61.5328 45.1554L69.0444 35.5363L76.682 45.2819C79.3806 48.7312 84.5358 44.6632 81.831 41.2137L73.2025 30.2116L82.5378 18.2573C85.5886 14.3498 88.6317 10.7457 94.2093 9.95432H119V50.0874ZM89.0281 29.9274C89.0281 24.4128 93.4824 19.9429 98.978 19.9429C104.473 19.9429 108.928 24.4128 108.928 29.9274C108.928 35.442 104.473 39.9141 98.978 39.9141C93.4824 39.9141 89.0281 35.4422 89.0281 29.9274ZM9.77071 29.9274C9.77071 24.4128 14.2251 19.9429 19.7225 19.9429C25.217 19.9429 29.6734 24.4128 29.6734 29.9274C29.6734 35.442 25.217 39.9141 19.7225 39.9141C14.2251 39.9141 9.77071 35.4422 9.77071 29.9274Z" fill="black"/>
</svg>

<?xml version="1.0" encoding="utf-8"?>
<!-- Generator: Adobe Illustrator 16.0.0, SVG Export Plug-In . SVG Version: 6.00 Build 0)  -->
<!DOCTYPE svg PUBLIC "-//W3C//DTD SVG 1.1//EN" "http://www.w3.org/Graphics/SVG/1.1/DTD/svg11.dtd">
<svg version="1.1" id="Layer_1" xmlns="http://www.w3.org/2000/svg" xmlns:xlink="http://www.w3.org/1999/xlink" x="0px" y="0px"
	 width="119px" height="60px" viewBox="0 0 119 60" enable-background="new 0 0 119 60" xml:space="preserve">
<path fill="#4D4D4D" d="M112.43,0H6.568C2.939,0,0,2.949,0,6.59v0.208h119V6.59C119,2.949,116.057,0,112.43,0z"/>
<path fill="#4D4D4D" d="M0,53.41C0,57.051,2.939,60,6.568,60H112.43c3.627,0,6.57-2.949,6.57-6.59v-0.164H0V53.41z"/>
<path fill="#4D4D4D" d="M82.354,29.927c0,9.215,7.443,16.684,16.625,16.684c9.181,0,16.627-7.469,16.627-16.684
	c0-9.214-7.446-16.682-16.627-16.682C89.797,13.245,82.354,20.713,82.354,29.927z M3.099,29.927c0,9.215,7.442,16.684,16.624,16.684
	c9.182,0,16.624-7.469,16.624-16.684c0-9.214-7.441-16.682-16.624-16.682C10.542,13.245,3.099,20.713,3.099,29.927z M119,50.088
	H37.027c1.479-1.041,2.856-2.463,4.358-4.387l8.348-10.691l3.648,4.623l4.059-5.414l-3.548-4.53l8.498-10.886
	c2.696-3.452-2.464-7.511-5.161-4.056l-7.511,9.618l-7.634-9.745c-2.705-3.446-7.855,0.624-5.152,4.069L45.56,29.69l-9.336,11.955
	c-3.317,4.251-6.631,8.141-13.201,8.442H0V9.954h81.539c-1.406,1.029-2.727,2.41-4.16,4.245L69.03,24.89l-3.649-4.623l-4.057,5.417
	l3.548,4.529L56.373,41.1c-2.696,3.451,2.465,7.51,5.16,4.056l7.512-9.619l7.637,9.745c2.699,3.45,7.854-0.618,5.149-4.067
	l-8.628-11.002l9.334-11.954c3.051-3.908,6.095-7.512,11.672-8.303H119V50.088z M89.028,29.927c0-5.515,4.454-9.984,9.95-9.984
	c5.494,0,9.949,4.47,9.949,9.984c0,5.514-4.455,9.987-9.949,9.987C93.482,39.914,89.028,35.442,89.028,29.927z M9.771,29.927
	c0-5.515,4.455-9.984,9.952-9.984c5.494,0,9.951,4.47,9.951,9.984c0,5.514-4.457,9.987-9.951,9.987
	C14.225,39.914,9.771,35.442,9.771,29.927z"/>
</svg>
